X:1
T:James Gibb editions
T:Por vida de mis ojos - Vásquez
T:#
%%score [ 1 2 3 4 ]
L:1/8
Q:1/4=160
M:none
K:C
V:1 treble nm="Soprano" snm="S"
V:2 treble nm="Alto" snm="A"
V:3 treble-8 nm="Tenor" snm="T"
V:4 bass nm="Bass" snm="B"
V:1
"^Por vida de mis ojos""^Juan Vásquez\n(c.1500-c.1560)" z16 | z16 | z16 | c8 e4 e4 | f4 d4 e4 c4 | %5
w: |||Por vi- da|de mis o- jos,|
w: |||||
 d4 (e6 c2) d4 | (B4 A4 B8) | A8 z8 | z16 | z8 z4 G4 | c4 c4 d4 d4 | e8 e4 d4- | %12
w: El ca\- * va-|lle\- * *|ro,||Por|vi- da de mis|o- jos, Bien|
w: |||||||
 d2 c2 (c4- c4 B4) | c8 z8 | z8 z4 G4 | c4 c4 d4 d4 | e8 e4 d4- | d2 c2 (c4- c4 B4) | c16 || z16 | %20
w: * os quie\- * *|ro,|Por|vi- da de mis|o- jos, Bien|* os quie\- * *|ro.||
w: ||||||||
 z8 c8 | e4 e4 f4 d4 | e4 c4 d4 e4 | d4 (c4- c4 B4) | c16 | z16 | z8 c8 | e4 e4 f4 d4 | %28
w: Por|vi- da de mis|o- jos, Y de|mi vi\- * *|da,||Por|vi- da de rnis|
w: Que|por vues- tros a-|mo- res An- do|per- di\- * *|da,||Que|por vues- tros a-|
 e4 c4 d4 e4 | d4 (c4- c4 B4) | c16 || z16 | z16 | z16 | c8 e4 e4 | f4 d4 e4 c4 | %36
w: o- jos, Y de|mi vi\- * *|da,||||Por vi- da|de mis o- jos,|
w: mo- res An- do|per- di\- * *|da,||||||
 d4 (e4- e2 c2) d4 | (B4 A4 B8) | A8 z8 | z16 | z8 z4 G4 | c4 c4 d4 d4 | e8 e4 d4- | %43
w: El ca\- * * va-|lle\- * *|ro,||Por|vi- da de mis|o- jos, Bien|
w: |||||||
 d2 c2 (c4- c4 B4) | c8 z8 | z8 z4 G4 | c4 c4 d4 d4 | e8 e4 d4- | d2 c2 (c4- c4 B4) | c16 |] %50
w: * os quie\- * *|ro,|Por|vi- da de mis|o- jos, Bien|* os quie\- * *|ro.|
w: |||||||
V:2
 C8 E4 E4 | F4 D4 E4 C4 | z4 G4 A4 B4 | c4 G4 z4 c4- | c4 B4 (c4 G4) | (A4 c6 A2 B4 | %6
w: Por vi- da|de mis o- jos,|El ca- va-|lle- ro, El|* ca- va\- *|lle\- * * *|
w: ||||||
 G4 A4- A4 ^G4) | A8 z8 | z8 z4 G4 | c6 c2 c4 B4 | A4 G4 A4 B4 | (c6 B2 A2 G2 G4- | G4 F4) G8- | %13
w: |ro,|Por|vi- da de mis|o- jos, Bien os|quie\- * * * *|* * ro,|
w: |||||||
 G8 z4 G4 | c6 c2 c4 B4 | A4 G4 A4 B4 | (c6 B2 A2 G2 G4- | G4 F4) G8- | G16 || E8 G4 G4 | %20
w: * Por|vi- da de mis|o- jos, Bien os|quie\- * * * *|* * ro.||Por vi- da|
w: ||||||Que por vues-|
 A4 B4 c4 G4 | z4 c4 A4 B4 | G4 A4 F4 c4 | B4 G4 G8- | G16 | E8 G4 G4 | A4 B4 c4 G4 | z4 c4 A4 B4 | %28
w: de mis o- jos,|Y de mi|vi- da, Y de|mi vi- da,||Por vi- da|de mis o- jos,|Y de mi|
w: tros a- mo- res|An- do per-|di- da, An- do|per- di- da,||Que por vues-|tros a- mo- res|An- do per-|
 G4 A4 F4 c4 | B4 G4 G8- | G16 || C8 E4 E4 | F4 D4 E4 C4 | z4 G4 A4 B4 | c4 G4 z4 c4- | %35
w: vi- da, Y de|mi vi- da,||Por vi- da|de mis o- jos,|El ca- va-|lle- ro, El|
w: di- da, An- do|per- di- da,||||||
 c4 B4 (c4 G4) | (A4 c6 A2 B4 | G4 A4 A4 ^G4) | A8 z8 | z8 z4 G4 | c6 c2 c4 B4 | A4 G4 A4 B4 | %42
w: * ca- va\- *|lle\- * * *||ro,|Por|vi- da de mis|o- jos, Bien os|
w: |||||||
 (c6 B2 A2 G2 G4- | G4 F4) G8- | G8 z4 G4 | c6 c2 c4 B4 | A4 G4 A4 B4 | (c6 B2 A2 G2 G4- | %48
w: quie\- * * * *|* * ro,|* Por|vi- da de mis|o- jos, Bien os|quie\- * * * *|
w: ||||||
 G4 F4) G8- | G16 |] %50
w: * * ro.||
w: ||
V:3
 z16 | z8 c8 | e4 e4 f4 d4 | e4 c4 g4 a4- | a4 (g6 f2 e4) | (d4 c4 A4 d4 | e4 f4 e8) | c8 z4 G4 | %8
w: |Por|vi- da de mis|o- jos, El ca\-|* va\- * *|lle\- * * *||ro, Por|
w: ||||||||
 c4 c4 d4 e4 | (e4 c4) d8 | z8 z4 (g4- | g2 f2 e2 d2) (c4 B4) | A8 G4 G4 | c4 c4 d4 e4 | %14
w: vi- da de mis|o\- * jos,|Bien|* * * * os *|quie- ro, Por|vi- da de mis|
w: ||||||
 (e4 c4) d8 | z8 z4 (g4- | g2 f2 e2 d2) (c4 d4) | (e4 c4 d8) | c16 || c8 e4 e4 | f4 d4 e4 c4 | %21
w: o\- * jos,|Bien|* * * * os *|quie\- * *|ro.|Por vi- da|de mis o- jos,|
w: |||||Que por vues-|tros a- mo- res|
 z4 g4 f4 g4 | e8 d4 c4 | d4 e4 d8 | c16 | c8 e4 e4 | f4 d4 e4 c4 | z4 g4 f4 g4 | e8 d4 c4 | %29
w: Y de mi|vi- da, Y|de mi vi-|da,|Por vi- da|de mis o- jos,|Y de mi|vi- da, Y|
w: An- do per-|di- da, An-|do per- di-|da,|||||
 d4 e4 d8 | c16 || z16 | z8 c8 | e4 e4 f4 d4 | e4 c4 g4 a4- | a4 (g6 f2 e4) | (d4 c4 A4 d4 | %37
w: de mi vi-|da,||Por|vi- da de mis|o- jos, El ca\-|* va\- * *|lle\- * * *|
w: ||||||||
 e4 f4 e8) | c8 z4 G4 | c4 c4 d4 e4 | (e4 c4) d8 | z8 z4 (g4- | g2 f2 e2 d2) (c4 B4) | A8 G4 G4 | %44
w: |ro, Por|vi- da de mis|o\- * jos,|Bien|* * * * os *|quie- ro, Por|
w: |||||||
 c4 c4 d4 e4 | (e4 c4) d8 | z8 z4 (g4- | g2 f2 e2 d2) (c4 d4) | (e4 c4 d8) | c16 |] %50
w: vi- da de mis|o\- * jos,|Bien|* * * * os *|quie\- * *|ro.|
w: ||||||
V:4
 z16 | z8 C8 | C4 C4 F,4 G,4 | C4 C4- C2 B,2 A,2 G,2 | (F,4 G,4) C,8 | z16 | z8 E,8 | %7
w: |Por|vi- da de mis|o- jos, * El ca- va-|lle\- * ro,||Por|
w: |||||||
 A,4 A,4 B,4 B,4 | A,8 G,4 (C4- | C2 B,2) A,4 (G,8 | F,4 E,4 F,4 G,4) | C,8 z4 G,4 | C4 C4 D4 D4 | %13
w: vi- da de mis|o- jos, Bien|* * os quie\-||ro, Por|vi- da de mis|
w: ||||||
 E4 C4 B,4 (C4- | C2 B,2 A,4) (G,8 | F,4 E,4 F,4 G,4 | C,4 C4- C4 B,4 | A,8 G,8) | C,16 || %19
w: o- jos, Bien os|* * * quie\-||||ro.|
w: ||||||
 C8 C4 C4 | F,4 G,4 C4 C4 | z4 C4 D4 B,4 | C4 A,4 z4 A,4 | B,4 C4 G,8 | C,16 | C8 C4 C4 | %26
w: Por vi- da|de mis o- jos,|Y de mi|vi- da, Y|de mi vi-|da,|Por vi- da|
w: Que por vues-|tros a- mo- res|An- do per-|di- da, An-|do per- di-|da,||
 F,4 G,4 C4 C4 | z4 C4 D4 B,4 | C4 A,4 z4 A,4 | B,4 C4 G,8 | C,16 || z16 | z8 C8 | C4 C4 F,4 G,4 | %34
w: de mis o- jos,|Y de mi|vi- da, Y|de mi vi-|da,||Por|vi- da de mis|
w: ||||||||
 C4 C6 B,2 A,2 G,2 | (F,4 G,4) C,8 | z16 | z8 E,8 | A,4 A,4 B,4 B,4 | A,8 G,4 (C4- | %40
w: o- jos, El ca- va-|lle\- * ro,||Por|vi- da de mis|o- jos, Bien|
w: ||||||
 C2 B,2) A,4 (G,8- | F,4 E,4 F,4 G,4) | C,8 z4 G,4 | C4 C4 D4 D4 | E4 C4 B,4 (C4- | %45
w: * * os quie\-||ro, Por|vi- da de mis|o- jos, Bien os|
w: |||||
 C2 B,2 A,4) (G,8- | F,4 E,4 F,4 G,4 | C,4 C4- C4 B,4 | A,8 G,8) | C,16 |] %50
w: * * * quie\-||||ro.|
w: |||||

